X: 371
T: Ball and Chain Hornpipe
C:Traditional, Arr. Mike Stangeland
B: jims roots
M:4/4
L:1/8
Q: 1/4=100
K:A
V:1 
%Q:1/8=430
CB,|:"A"A,CEAc2dc|"Bm"BFDF BcdB|"A"cdeg aecA|
"Bm"BcAF "E"GEDB,|"A"A,CEA c2dc|"Bm"BFDF BcdB|
"A"cdeg aecA|[1"E"BAGB "A"A2CB,:|[2"E"BAGB "A"A2EF||
|:"A"Aceg a2ag|"Bm"fdBd f2af|"A"ecea gafa|
ecAc "E"BGE2|"A"Acega2ag|"Bm"fdBdf2af|
"A"ecAc "E"BAGE|[1"A"Acega2EF:|[2"A"Acega4||
% abcbook-tune_id 6298c2457c7de8d09c20a265


% abcbook-boost 0
% abcbook-tablature 
% abcbook-transpose 
% abcbook-lastupdated 1654178373239
% abcbook-soundfonts 
% abcbook-repeats 1


